X:110
T:I had two Ships - Woodrich
%%VWML:SBG-1-2-802-0
F:http://www.vwml.org/record/SBG/1/2/802
Z:Original Sibelius transcriptions by M. & S. Graebe
M:3/4
I:linebreak $
K:A
V:1 treble nm="P1"
V:1
 E | c B G B A F | E2 A2 z E | A G A c B A | B4 z E | c B A d c B |$ c2 A2 D2 | F B A G F E | %8
 A4 z4 | c B c d B | B A B c A F | F B A G F E | A4 z4 | %13





